;FLAVOR:Marlin
;TIME:1628
;Filament used: 1.00081m
;Layer height: 0.32
;MINX:157
;MINY:164.242
;MINZ:0.2
;MAXX:192.831
;MAXY:185.754
;MAXZ:23.72
;Generated with Cura_SteamEngine 4.12.1
M140 S70
M105
M190 S70
M104 S200
M105
M109 S200
M82 ;absolute extrusion mode
M201 X500.00 Y500.00 Z100.00 E5000.00 ;Setup machine max acceleration
M203 X500.00 Y500.00 Z10.00 E50.00 ;Setup machine max feedrate
M204 P500.00 R1000.00 T500.00 ;Setup Print/Retract/Travel acceleration
M205 X8.00 Y8.00 Z0.40 E5.00 ;Setup Jerk
M220 S100 ;Reset Feedrate
M221 S100 ;Reset Flowrate
G28 ;Home
M420 S1 Z2 ;Enable ABL using saved Mesh and Fade Height
G92 E0 ;Reset Extruder
G1 Z2.0 F3000 ;Move Z Axis up
G1 X10.1 Y20 Z0.28 F5000.0 ;Move to start position
G1 X10.1 Y200.0 Z0.28 F1500.0 E15 ;Draw the first line
G1 X10.4 Y200.0 Z0.28 F5000.0 ;Move to side a little
G1 X10.4 Y20 Z0.28 F1500.0 E30 ;Draw the second line
G92 E0 ;Reset Extruder
G1 Z2.0 F3000 ;Move Z Axis up
G92 E0
G92 E0
G1 F1500 E-6.5
;LAYER_COUNT:83
;LAYER:0
M117 INDICATOR-Layer0
M117 DASHBOARD_LAYER_INDICATOR 1
M106 S255
G0 F6000 X158.261 Y167.519 Z0.2
;TYPE:SKIRT
G1 F1500 E0
G1 F1200 X158.544 Y167.271 E0.01252
G1 X158.937 Y166.979 E0.0288
G1 X159.271 Y166.8 E0.0414
G1 X159.554 Y166.685 E0.05156
G1 X159.911 Y166.56 E0.06414
G1 X160.573 Y166.409 E0.08673
G1 X160.772 Y166.387 E0.09339
G1 X161.21 Y166.344 E0.10802
G1 X161.742 Y166.288 E0.12582
G1 X161.943 Y166.273 E0.13252
G1 X162.205 Y166.263 E0.14124
G1 X167.607 Y165.601 E0.32226
G1 X168.069 Y165.507 E0.33794
G1 X169.575 Y165.295 E0.38852
G1 X170.004 Y165.22 E0.40301
G1 X170.215 Y165.191 E0.41009
G1 X170.563 Y165.155 E0.42173
G1 X171.847 Y164.926 E0.46511
G1 X172.19 Y164.868 E0.47668
G1 X172.62 Y164.79 E0.49121
G1 X173.59 Y164.62 E0.52397
G1 X173.988 Y164.531 E0.53753
G1 X174.343 Y164.474 E0.54949
G1 X176.124 Y164.296 E0.60902
G1 X176.326 Y164.283 E0.61575
G1 X177.273 Y164.253 E0.64727
G1 X178.532 Y164.242 E0.68914
G1 X178.881 Y164.259 E0.70076
G1 X180.221 Y164.404 E0.74559
G1 X180.637 Y164.479 E0.75965
G1 X180.944 Y164.557 E0.77019
G1 X181.29 Y164.654 E0.78214
G1 X181.793 Y164.792 E0.79949
G1 X182.093 Y164.891 E0.80999
G1 X182.222 Y164.942 E0.81461
G1 X182.799 Y165.133 E0.83482
G1 X182.993 Y165.205 E0.84171
G1 X184.138 Y165.675 E0.88287
G1 X184.425 Y165.821 E0.89358
G1 X184.652 Y165.925 E0.90189
G1 X185.164 Y166.181 E0.92093
G1 X185.481 Y166.364 E0.9331
G1 X185.6 Y166.443 E0.93785
G1 X186.017 Y166.672 E0.95367
G1 X186.357 Y166.871 E0.96678
G1 X186.675 Y167.102 E0.97985
G1 X187.186 Y167.432 E1.00008
G1 X187.466 Y167.637 E1.01162
G1 X189.218 Y169.081 E1.08714
G1 X189.517 Y169.364 E1.10083
G1 X189.735 Y169.601 E1.11154
G1 X190.372 Y170.23 E1.14131
G1 X190.537 Y170.406 E1.14934
G1 X190.901 Y170.828 E1.16787
G1 X191.127 Y171.141 E1.18072
G1 X191.569 Y171.668 E1.20359
G1 X191.674 Y171.801 E1.20923
G1 X191.915 Y172.124 E1.22263
G1 X192.123 Y172.442 E1.23527
G1 X192.309 Y172.771 E1.24784
G1 X192.514 Y173.215 E1.26411
G1 X192.655 Y173.744 E1.28232
G1 X192.789 Y174.532 E1.3089
G1 X192.831 Y175.02 E1.32519
G1 X192.767 Y175.65 E1.34625
G1 X192.61 Y176.399 E1.37171
G1 X192.464 Y176.886 E1.38862
G1 X192.432 Y176.967 E1.39151
G1 X192.252 Y177.345 E1.40544
G1 X192.138 Y177.546 E1.41312
G1 X191.895 Y177.909 E1.42765
G1 X191.605 Y178.279 E1.44329
G1 X191.15 Y178.827 E1.46698
G1 X191.034 Y179.002 E1.47396
G1 X190.678 Y179.442 E1.49279
G1 X190.096 Y180.034 E1.5204
G1 X189.879 Y180.288 E1.53151
G1 X189.585 Y180.587 E1.54546
G1 X189.379 Y180.768 E1.55458
G1 X189.302 Y180.842 E1.55813
G1 X188.945 Y181.15 E1.57381
G1 X188.821 Y181.28 E1.57979
G1 X188.471 Y181.595 E1.59545
G1 X188.181 Y181.815 E1.60755
G1 X187.782 Y182.098 E1.62382
G1 X187.568 Y182.294 E1.63348
G1 X187.197 Y182.561 E1.64868
G1 X186.844 Y182.792 E1.66271
G1 X186.417 Y183.089 E1.68001
G1 X186.165 Y183.247 E1.6899
G1 X185.64 Y183.54 E1.7099
G1 X185.266 Y183.769 E1.72449
G1 X184.967 Y183.923 E1.73567
G1 X184.346 Y184.205 E1.75836
G1 X184.277 Y184.246 E1.76103
G1 X183.815 Y184.467 E1.77806
G1 X182.388 Y185.006 E1.82879
G1 X182.252 Y185.054 E1.83359
G1 X181.569 Y185.275 E1.85747
G1 X181.306 Y185.347 E1.86654
G1 X181.185 Y185.374 E1.87066
G1 X180.708 Y185.498 E1.88705
G1 X180.519 Y185.541 E1.8935
G1 X179.683 Y185.701 E1.92181
G1 X179.113 Y185.754 E1.94085
G1 X177.21 Y185.75 E2.00414
G1 X177.073 Y185.747 E2.0087
G1 X176.211 Y185.706 E2.0374
G1 X176.078 Y185.696 E2.04184
G1 X174.313 Y185.533 E2.10079
G1 X173.836 Y185.45 E2.1169
G1 X173.669 Y185.407 E2.12263
G1 X173.391 Y185.342 E2.13213
G1 X171.885 Y185.087 E2.18293
G1 X171.506 Y185.015 E2.19576
G1 X170.971 Y184.931 E2.21378
G1 X170.551 Y184.843 E2.22805
G1 X168.96 Y184.62 E2.28148
G1 X166.577 Y184.271 E2.36159
G1 X166.164 Y184.229 E2.37539
G1 X164.886 Y184.065 E2.41825
G1 X163.579 Y183.91 E2.46202
G1 X163.201 Y183.869 E2.47467
G1 X162.801 Y183.813 E2.4881
G1 X160.624 Y183.599 E2.56086
G1 X160.062 Y183.489 E2.57991
G1 X159.766 Y183.401 E2.59018
G1 X159.374 Y183.253 E2.60411
G1 X159.339 Y183.237 E2.60539
G1 X158.795 Y182.916 E2.6264
G1 X158.49 Y182.689 E2.63905
G1 X158.219 Y182.461 E2.65083
G1 X157.89 Y182.099 E2.6671
G1 X157.733 Y181.876 E2.67617
G1 X157.559 Y181.602 E2.68696
G1 X157.263 Y180.992 E2.70952
G1 X157.171 Y180.685 E2.72017
G1 X157.086 Y180.335 E2.73215
G1 X157.001 Y179.627 E2.75587
G1 X157 Y170.407 E3.06253
G1 X157.054 Y169.841 E3.08144
G1 X157.122 Y169.487 E3.09343
G1 X157.253 Y169.016 E3.10969
G1 X157.465 Y168.562 E3.12636
G1 X157.603 Y168.321 E3.13559
G1 X157.937 Y167.85 E3.1548
G1 X157.969 Y167.813 E3.15642
G1 X158.261 Y167.519 E3.17021
G0 F6000 X158.524 Y167.82
G1 F1200 X158.807 Y167.572 E3.18272
G1 X159.175 Y167.302 E3.1979
G1 X159.462 Y167.152 E3.20867
G1 X159.686 Y167.062 E3.2167
G1 X160.043 Y166.937 E3.22928
G1 X160.617 Y166.807 E3.24886
G1 X160.811 Y166.785 E3.25535
G1 X161.249 Y166.743 E3.26999
G1 X161.785 Y166.686 E3.28791
G1 X161.958 Y166.673 E3.29368
G1 X162.234 Y166.662 E3.30287
G1 X167.673 Y165.996 E3.48512
G1 X167.919 Y165.941 E3.49351
G1 X168.125 Y165.903 E3.50048
G1 X169.639 Y165.69 E3.55133
G1 X170.073 Y165.614 E3.56598
G1 X170.256 Y165.589 E3.57212
G1 X170.606 Y165.553 E3.58383
G1 X171.914 Y165.32 E3.62802
G1 X172.245 Y165.264 E3.63918
G1 X172.689 Y165.184 E3.65419
G1 X173.66 Y165.014 E3.68697
G1 X174.075 Y164.921 E3.70112
G1 X174.382 Y164.872 E3.71146
G1 X176.163 Y164.694 E3.77099
G1 X176.339 Y164.682 E3.77686
G1 X177.276 Y164.653 E3.80804
G1 X178.535 Y164.642 E3.84991
G1 X178.838 Y164.657 E3.86
G1 X180.178 Y164.802 E3.90483
G1 X180.538 Y164.867 E3.917
G1 X180.845 Y164.945 E3.92754
G1 X181.189 Y165.041 E3.93941
G1 X181.687 Y165.178 E3.95659
G1 X181.947 Y165.264 E3.9657
G1 X182.066 Y165.31 E3.96994
G1 X182.673 Y165.512 E3.99122
G1 X182.841 Y165.575 E3.99719
G1 X183.986 Y166.045 E4.03836
G1 X184.292 Y166.2 E4.04977
G1 X184.473 Y166.282 E4.05637
G1 X184.985 Y166.538 E4.07541
G1 X185.26 Y166.698 E4.086
G1 X185.389 Y166.784 E4.09115
G1 X185.815 Y167.017 E4.1073
G1 X186.155 Y167.216 E4.1204
G1 X186.48 Y167.452 E4.13376
G1 X186.969 Y167.768 E4.15313
G1 X187.212 Y167.946 E4.16315
G1 X188.964 Y169.39 E4.23866
G1 X189.223 Y169.635 E4.25052
G1 X189.447 Y169.879 E4.26153
G1 X190.091 Y170.514 E4.29162
G1 X190.234 Y170.667 E4.29858
G1 X190.598 Y171.089 E4.31712
G1 X190.831 Y171.411 E4.33034
G1 X191.262 Y171.925 E4.35265
G1 X191.354 Y172.04 E4.35755
G1 X191.595 Y172.363 E4.37095
G1 X191.774 Y172.638 E4.38186
G1 X191.96 Y172.967 E4.39443
G1 X192.149 Y173.382 E4.4096
G1 X192.26 Y173.811 E4.42434
G1 X192.394 Y174.599 E4.45092
G1 X192.431 Y175.053 E4.46607
G1 X192.376 Y175.568 E4.4833
G1 X192.219 Y176.317 E4.50875
G1 X192.092 Y176.739 E4.52341
G1 X192.06 Y176.82 E4.52631
G1 X191.904 Y177.148 E4.53839
G1 X191.79 Y177.349 E4.54607
G1 X191.58 Y177.663 E4.55864
G1 X191.297 Y178.024 E4.57389
G1 X190.83 Y178.587 E4.59822
G1 X190.701 Y178.781 E4.60597
G1 X190.392 Y179.162 E4.62229
G1 X189.804 Y179.761 E4.65021
G1 X189.575 Y180.028 E4.6619
G1 X189.32 Y180.287 E4.67399
G1 X189.127 Y180.457 E4.68255
G1 X189.041 Y180.539 E4.6865
G1 X188.671 Y180.858 E4.70275
G1 X188.531 Y181.005 E4.7095
G1 X188.227 Y181.278 E4.72309
G1 X187.949 Y181.489 E4.7347
G1 X187.548 Y181.774 E4.75106
G1 X187.335 Y181.969 E4.76067
G1 X186.964 Y182.236 E4.77587
G1 X186.634 Y182.451 E4.78897
G1 X186.189 Y182.761 E4.80701
G1 X185.97 Y182.898 E4.8156
G1 X185.427 Y183.201 E4.83628
G1 X185.077 Y183.417 E4.84996
G1 X184.801 Y183.559 E4.86028
G1 X184.167 Y183.847 E4.88344
G1 X184.074 Y183.902 E4.88704
G1 X183.674 Y184.093 E4.90178
G1 X182.247 Y184.632 E4.95252
G1 X182.128 Y184.674 E4.95671
G1 X181.445 Y184.895 E4.98059
G1 X180.608 Y185.111 E5.00934
G1 X180.444 Y185.148 E5.01493
G1 X179.608 Y185.308 E5.04324
G1 X179.114 Y185.354 E5.05974
G1 X177.211 Y185.35 E5.12304
G1 X177.092 Y185.347 E5.127
G1 X176.23 Y185.306 E5.1557
G1 X176.115 Y185.298 E5.15953
G1 X174.35 Y185.135 E5.21849
G1 X173.936 Y185.063 E5.23246
G1 X173.772 Y185.021 E5.23809
G1 X173.451 Y184.946 E5.24906
G1 X171.96 Y184.694 E5.29935
G1 X171.551 Y184.616 E5.3132
G1 X171.033 Y184.535 E5.33064
G1 X170.631 Y184.451 E5.3443
G1 X169.018 Y184.225 E5.39847
G1 X166.609 Y183.872 E5.47945
G1 X166.215 Y183.832 E5.49262
G1 X164.937 Y183.668 E5.53548
G1 X163.614 Y183.511 E5.57979
G1 X163.244 Y183.471 E5.59217
G1 X162.853 Y183.416 E5.6053
G1 X160.663 Y183.201 E5.67849
G1 X160.176 Y183.105 E5.695
G1 X159.88 Y183.017 E5.70527
G1 X159.54 Y182.89 E5.71734
G1 X159.505 Y182.874 E5.71862
G1 X159.034 Y182.595 E5.73683
G1 X158.729 Y182.368 E5.74947
G1 X158.492 Y182.169 E5.75977
G1 X158.071 Y181.662 E5.78169
G1 X157.897 Y181.388 E5.79248
G1 X157.64 Y180.859 E5.81204
G1 X157.559 Y180.591 E5.82136
G1 X157.474 Y180.241 E5.83333
G1 X157.401 Y179.627 E5.8539
G1 X157.4 Y170.407 E6.16056
G1 X157.447 Y169.917 E6.17693
G1 X157.515 Y169.563 E6.18892
G1 X157.64 Y169.124 E6.2041
G1 X157.812 Y168.761 E6.21746
G1 X157.95 Y168.52 E6.2267
G1 X158.239 Y168.111 E6.24336
G1 X158.271 Y168.074 E6.24498
G1 X158.524 Y167.82 E6.25691
G0 F6000 X158.788 Y168.12
G1 F1200 X159.071 Y167.872 E6.26942
G1 X159.411 Y167.628 E6.28334
G1 X159.818 Y167.44 E6.29825
G1 X160.175 Y167.315 E6.31083
G1 X160.661 Y167.204 E6.32741
G1 X161.827 Y167.083 E6.3664
G1 X161.974 Y167.073 E6.3713
G1 X162.262 Y167.062 E6.38089
G1 X167.737 Y166.391 E6.56435
G1 X168.006 Y166.331 E6.57352
G1 X168.181 Y166.299 E6.57944
G1 X169.703 Y166.085 E6.63055
G1 X170.142 Y166.008 E6.64538
G1 X170.297 Y165.987 E6.65058
G1 X170.665 Y165.949 E6.66289
G1 X171.98 Y165.715 E6.70731
G1 X172.311 Y165.659 E6.71848
G1 X172.759 Y165.578 E6.73362
G1 X173.746 Y165.405 E6.76695
G1 X174.162 Y165.312 E6.78112
G1 X174.422 Y165.27 E6.78988
G1 X176.203 Y165.092 E6.84942
G1 X176.352 Y165.082 E6.85438
G1 X177.28 Y165.053 E6.88526
G1 X178.539 Y165.042 E6.92714
G1 X178.795 Y165.055 E6.93566
G1 X180.135 Y165.2 E6.98049
G1 X180.44 Y165.255 E6.9908
G1 X180.747 Y165.333 E7.00134
G1 X181.089 Y165.429 E7.01315
G1 X181.581 Y165.563 E7.03011
G1 X181.943 Y165.691 E7.04288
G1 X182.547 Y165.892 E7.06405
G1 X182.689 Y165.945 E7.0691
G1 X183.834 Y166.415 E7.11026
G1 X184.14 Y166.571 E7.12169
G1 X184.294 Y166.64 E7.1273
G1 X184.806 Y166.896 E7.14634
G1 X185.038 Y167.031 E7.15526
G1 X185.177 Y167.123 E7.16081
G1 X185.613 Y167.362 E7.17735
G1 X185.953 Y167.561 E7.19045
G1 X186.28 Y167.799 E7.2039
G1 X186.752 Y168.104 E7.22259
G1 X186.957 Y168.254 E7.23104
G1 X188.709 Y169.698 E7.30655
G1 X188.929 Y169.906 E7.31662
G1 X189.165 Y170.163 E7.32823
G1 X189.81 Y170.799 E7.35836
G1 X189.931 Y170.928 E7.36424
G1 X190.295 Y171.35 E7.38278
G1 X190.52 Y171.662 E7.39557
G1 X190.956 Y172.182 E7.41814
G1 X191.033 Y172.279 E7.42226
G1 X191.274 Y172.602 E7.43566
G1 X191.426 Y172.835 E7.44492
G1 X191.612 Y173.164 E7.45749
G1 X191.783 Y173.547 E7.47144
G1 X191.866 Y173.878 E7.48279
G1 X192 Y174.666 E7.50937
G1 X192.03 Y175.084 E7.52331
G1 X191.984 Y175.486 E7.53677
G1 X191.827 Y176.235 E7.56222
G1 X191.72 Y176.592 E7.57462
G1 X191.688 Y176.673 E7.57751
G1 X191.556 Y176.95 E7.58772
G1 X191.442 Y177.151 E7.59541
G1 X191.264 Y177.417 E7.60605
G1 X190.989 Y177.768 E7.62088
G1 X190.51 Y178.345 E7.64582
G1 X190.368 Y178.559 E7.65437
G1 X190.107 Y178.881 E7.66815
G1 X189.513 Y179.486 E7.69635
G1 X189.271 Y179.768 E7.70871
G1 X189.056 Y179.987 E7.71892
G1 X188.86 Y180.16 E7.72761
G1 X188.78 Y180.236 E7.73128
G1 X188.391 Y180.571 E7.74836
G1 X188.241 Y180.729 E7.7556
G1 X187.984 Y180.96 E7.7671
G1 X187.718 Y181.162 E7.77821
G1 X187.317 Y181.446 E7.79455
G1 X187.101 Y181.645 E7.80432
G1 X186.73 Y181.912 E7.81952
G1 X186.412 Y182.118 E7.83212
G1 X185.96 Y182.433 E7.85045
G1 X185.775 Y182.549 E7.85771
G1 X185.215 Y182.862 E7.87905
G1 X184.888 Y183.065 E7.89185
G1 X184.636 Y183.195 E7.90128
G1 X183.977 Y183.495 E7.92536
G1 X183.871 Y183.557 E7.92945
G1 X183.532 Y183.719 E7.94194
G1 X182.105 Y184.258 E7.99268
G1 X182.005 Y184.293 E7.9962
G1 X181.322 Y184.514 E8.02008
G1 X180.507 Y184.724 E8.04807
G1 X180.369 Y184.755 E8.05278
G1 X179.533 Y184.915 E8.08109
G1 X179.114 Y184.954 E8.09508
G1 X177.211 Y184.95 E8.15838
G1 X177.111 Y184.948 E8.1617
G1 X176.249 Y184.907 E8.19041
G1 X176.152 Y184.9 E8.19364
G1 X174.387 Y184.737 E8.25259
G1 X174.037 Y184.676 E8.26441
G1 X173.857 Y184.629 E8.2706
G1 X173.54 Y184.556 E8.28142
G1 X172.034 Y184.301 E8.33222
G1 X171.621 Y184.223 E8.3462
G1 X171.095 Y184.14 E8.36391
G1 X170.961 Y184.115 E8.36844
G1 X170.695 Y184.056 E8.37751
G1 X169.075 Y183.829 E8.43191
G1 X166.66 Y183.476 E8.51309
G1 X166.266 Y183.435 E8.52627
G1 X165.009 Y183.274 E8.56842
G1 X163.643 Y183.112 E8.61417
G1 X163.208 Y183.063 E8.62873
G1 X162.887 Y183.016 E8.63952
G1 X160.702 Y182.802 E8.71254
G1 X160.29 Y182.722 E8.7265
G1 X159.994 Y182.634 E8.73677
G1 X159.706 Y182.526 E8.747
G1 X159.671 Y182.51 E8.74828
G1 X159.272 Y182.274 E8.7637
G1 X158.967 Y182.047 E8.77634
G1 X158.765 Y181.876 E8.78515
G1 X158.409 Y181.447 E8.80369
G1 X158.235 Y181.173 E8.81448
G1 X158.017 Y180.726 E8.83102
G1 X157.948 Y180.496 E8.83901
G1 X157.863 Y180.146 E8.85099
G1 X157.801 Y179.627 E8.86838
G1 X157.8 Y170.407 E9.17503
G1 X157.839 Y169.992 E9.1889
G1 X157.907 Y169.638 E9.20089
G1 X158.025 Y169.236 E9.21482
G1 X158.159 Y168.96 E9.22503
G1 X158.297 Y168.719 E9.23426
G1 X158.542 Y168.373 E9.24836
G1 X158.574 Y168.336 E9.24999
G1 X158.788 Y168.12 E9.2601
G0 F6000 X159.052 Y168.421
G1 F1200 X159.335 Y168.173 E9.27262
G1 X159.771 Y167.891 E9.28989
G1 X159.95 Y167.817 E9.29633
G1 X160.307 Y167.692 E9.30891
G1 X160.704 Y167.602 E9.32245
G1 X161.869 Y167.481 E9.36141
G1 X161.989 Y167.472 E9.36541
G1 X162.301 Y167.46 E9.3758
G1 X167.814 Y166.785 E9.56053
G1 X168.094 Y166.722 E9.57007
G1 X168.236 Y166.696 E9.57488
G1 X169.742 Y166.484 E9.62546
G1 X170.211 Y166.402 E9.64129
G1 X170.338 Y166.384 E9.64556
G1 X170.735 Y166.343 E9.65884
G1 X172.047 Y166.109 E9.70316
G1 X172.402 Y166.049 E9.71514
G1 X173.816 Y165.799 E9.76289
G1 X174.249 Y165.702 E9.77765
G1 X174.462 Y165.668 E9.78483
G1 X176.243 Y165.49 E9.84436
G1 X176.365 Y165.482 E9.84843
G1 X177.283 Y165.453 E9.87897
G1 X178.542 Y165.442 E9.92085
G1 X178.752 Y165.452 E9.92784
G1 X180.092 Y165.597 E9.97267
G1 X180.341 Y165.642 E9.98109
G1 X180.648 Y165.72 E9.99162
G1 X180.988 Y165.816 E10.00337
G1 X181.475 Y165.949 E10.02016
G1 X181.803 Y166.067 E10.03176
G1 X182.421 Y166.272 E10.05341
G1 X182.538 Y166.315 E10.05756
G1 X183.683 Y166.785 E10.09873
G1 X183.946 Y166.92 E10.10856
G1 X184.115 Y166.998 E10.11475
G1 X184.627 Y167.254 E10.13379
G1 X184.974 Y167.468 E10.14735
G1 X185.411 Y167.708 E10.16393
G1 X185.751 Y167.907 E10.17703
G1 X186.04 Y168.117 E10.18892
G1 X186.052 Y168.128 E10.18946
G1 X186.535 Y168.44 E10.20858
G1 X186.703 Y168.563 E10.21551
G1 X188.455 Y170.007 E10.29102
G1 X188.634 Y170.177 E10.29923
G1 X188.872 Y170.436 E10.31093
G1 X189.529 Y171.084 E10.34162
G1 X189.628 Y171.189 E10.34642
G1 X189.992 Y171.611 E10.36496
G1 X190.173 Y171.862 E10.37525
G1 X190.192 Y171.894 E10.37649
G1 X190.649 Y172.439 E10.40014
G1 X190.713 Y172.519 E10.40355
G1 X190.954 Y172.842 E10.41696
G1 X191.078 Y173.032 E10.4245
G1 X191.264 Y173.361 E10.43707
G1 X191.415 Y173.709 E10.44969
G1 X191.472 Y173.945 E10.45776
G1 X191.606 Y174.733 E10.48435
